X: 1
T: Kind of a G Minor Day
C:Susan Reid and David Kaynor?
N:From a Facebook post by David Kaynor, 2014-3-19
L:1/8
M:4/4
K:Bb
|: D2 |\
"Gm"G2GD GABc | d2dc BGGD | "F"F2FC FGAB | c2AG FCCF |
"Gm"DGGD GABc | d2dc BGG2 | "Dm"cBcd cAGF |1 "Gm"G2GFG2 :|2 "Gm"G2GG GFGA |
|:\
"Bb"B2Bc dfga | babg fBdf | "Gm"g2ga gfga | "Cm"babg "F"fdcA |
"Bb"B2Bc dfga | babg fBdf | "Dm"cBcd cAGF |1 "Gm"G2GG GFGA :| "Gm"G2GFG2 ||

%%sep 1 1 500

